X:12
T:K. V. 487/12
M:2/4
L:1/8
K:C
V:1
+mf+ f | (fd) ._B.B | (_B2>=B2) | (cB) cf | (_e2d)f | (fd) _BB | _B _b2 _a | {/a}gf ga |1 f2 z :|]2 f2 [|:
V:2
z | +mf+ _B,F DF | _B,F DB, | A,F AF | _B_B, B, z | DF DF | Ez Fz | _Bz cz |1 F2 z :|]2 F2 [|:
V:1
+f+ ff | g z +p+ dd | _e z cc | (_e/d/c/d/)ed | (Bc) +f+ .f.f | gz +p+ dd | _ez cc | +<(+ dd cc | dd ee +<)+ | +mf+ (f/g/)f/e/ (f/g/)a/f/ | (e/f/)e/d/ (e/f/)g/e/ | +p+ (f/g/)f/e/ (f/g/)a/f/ | (e/f/)e/d/ (e/f/)g/e/ | +fermata+ f2 z f | +mf+ (fd) ._B.B | (_B2>=B2) | {/d}(cB) cf | (_e2d)f | (fd) ._B.B | _B2>=B2 | {/d}(c_B) cd | _B2 z +p+ d | {f}_ed fe | {/_e}dc de | {/d}c_B cf | d2 z d | {/f}_ed ef | {/_e}dc de | {/d}c_B cd | _B2 z2 | +f+ c2c2 | d2 z2 | +p+ c4 |1 B2 :|]2 _B2 z2 |
V:2
dd | _ez BB | cz AA | _B(a/b/) cB | (^GA) .d.d | _ez BB | cz FF | _BB FF | _BB GG | Ac Ac | _Bc Bc | Ac Ac | _bc Bc | +fermata+ A z z2 | _B,F  DF | _B,F DB, | A,F Af | _B_B, B z | DF DF | DF D_B, | F,F AF | _B2 z B | cz Fz | _Bz _B,z | Fz F,z | _B,D F_B | cz Fz | _Bz _B,z | Fz F,z | _B,z z2 | F2F2 | _B2z2 | F4 |1 D2 :|]2 D2 z2 |

